X: 1
T: The Humours Of Lisheen
R: jig
M: 6/8
L: 1/8
K: Gmaj
d|:efg edB|c2A BGE|GFG BdB|BAG ABd|
efg edB|cBA BGE|GFG BdB|1 AGG GBd:|2 AGG G2D||
GBd gfg|agf g2f|gfe fdB|cBA BGE|
GBd gfg|agf g2f|gfg B/c/dB|1 AGG G2D:|2 AGG GBd||


Tune 1600	Setting 28295

